X:1
T:Buxtehude - Aria:  La Capricciosa in G Minor.
%%score { ( 1 3 ) | ( 2 4 5 ) }
L:1/8
Q:1/4=100
M:4/4
K:G
V:1 treble nm="Harpsichord" snm="Hch."
V:3 treble 
V:2 bass 
V:4 bass 
V:5 bass 
V:1
"^Partita 16"!f! g/B/d/B/ =f/B/d/B/ e/G/c/G/ e/G/c/G/ | d2 Mc2 B2 G2 | B/D/G/D/ B/G/e/B/ Mc2 B2 | %3
 A/E/G/E/ G/D/F/C/ G/B,/D/B,/ z/ B,/D/PG/ :: B3 Md c2 B2 | A2 PA2 B2 G2 | B3 PB c2 B2 | %7
 z/ G/A/G/ F2 z/ PD/G- G2 :| %8
V:2
 G2 G,2 C2 C,2 | z D z D D2 B,2 | G,2 E,2 A,/A,,/C,/A,,/ D2 | CB, A,2 z2 G,2 :: %4
 D/G,/B,/G,/ D/G,/B,/G,/ A,2 z B, | C/D/B,/C/ A,/C/D/D,/ G,4 | D4 E,F,G,B,, | C,C,, D,,2 B,2 B,2 :| %8
V:3
 x8 | z/ G/B/G/ z/ G/A/F/ G2 D2 | x6 G2 | x8 :: x4 z/ F/A/F/ z/ D/G/D/ | %5
 E2 z F z/ D/G/D/ z/ B,/D/B,/ | G4 z/ G/A/D/ z/ D/G/D/ | E2 z/ E/D/C/ z z/ D/- D2 :| %8
V:4
 x8 | G,2 D,2 G,/G,,/B,,/G,,/ G,/B,,/G,/D,/ | x6 G,/B,,/D,/B,,/ | C,2 D,2 G,,4 :: x8 | x8 | %6
 G,,/B,,/D,/G,/ D,/B,,/G,,/G,/ x4 | x4 G,,4 :| %8
V:5
 x8 | x8 | x8 | x8 :: x8 | x8 | x8 | x6 z/ PD,/G, :| %8

